X:32
T:Pantheon THO3.032, The
O:England;London
M:2/4
L:1/8
Z:vmp. Peter Dunk 2011.from a transcription by Fynn Titford-Mock 2006-9
B:Thompson's Compleat Collection of 200 Favourite Country Dances Vol. III.1765-72
Q:1/2=70
K:A
c e2 d/c/|B d2 c/B/|A c2 B/A/|BE E2|\
c e2 d/c/|B d2 c/B/|cA {c}BA/G/|A4:|
|:E A2 c|BdcA|G A2 B|cB B2|caBg|e>fed|cA {c}BA/G/|A4:|

